priv/static/svgs/duotones/price-boost.svg

<svg width="174" height="174" viewBox="0 0 174 174" fill="none" xmlns="http://www.w3.org/2000/svg">
  <symbol id="item" viewBox="0 0 174 174"  fill="none">
    
<path opacity="0.1" d="M112.926 145.174C126.412 145.174 137.344 134.242 137.344 120.756C137.344 107.27 126.412 96.338 112.926 96.338C99.4404 96.338 88.5081 107.27 88.5081 120.756C88.5081 134.242 99.4404 145.174 112.926 145.174Z" fill="currentColor"/>
<path opacity="0.1" d="M90.6539 34.336L54.1719 70.847C52.1709 72.848 53.5919 76.241 56.4049 76.241H129.079C131.892 76.241 133.313 72.848 131.312 70.847L95.1489 34.365C93.9019 33.118 91.9009 33.118 90.6539 34.336Z" fill="currentColor"/>
<path d="M59.486 69.02V68.52H58.986H50.315C49.2391 68.52 48.3206 67.9149 47.9058 66.9145L47.444 67.106L47.9058 66.9145C47.4921 65.9167 47.7049 64.8528 48.4674 64.0637L78.6245 33.9066C80.0801 32.451 82.4618 32.4461 83.9511 33.9082C83.9516 33.9087 83.952 33.9091 83.9525 33.9096L113.848 63.8055C114.607 64.5644 114.823 65.6286 114.434 66.6013C114.044 67.5755 113.149 68.2057 112.074 68.2301L112.073 68.2301L102.213 68.4621L101.728 68.4735L101.725 68.9589L101.638 82.9949V82.998C101.638 83.3308 101.369 83.6 101.036 83.6C100.703 83.6 100.435 83.3314 100.434 82.9991C100.434 82.9987 100.434 82.9984 100.434 82.998L100.518 67.3041L112.034 67.026C112.881 67.0225 113.212 66.3496 113.28 66.2103C113.283 66.2059 113.285 66.2019 113.286 66.1986L112.839 65.975L113.286 66.1986C113.387 65.9972 113.62 65.2564 112.984 64.6585L83.0905 34.7654C82.0833 33.7582 80.4907 33.7582 79.4834 34.7654L49.3234 64.9254C48.6963 65.5526 48.931 66.254 49.0097 66.4507L49.0175 66.47L49.0268 66.4886C49.0283 66.4917 49.03 66.4951 49.0319 66.4989C49.1039 66.6445 49.4363 67.316 50.315 67.316H60.69V105.096C60.69 105.391 60.4295 105.669 60.088 105.669C59.7551 105.669 59.486 105.4 59.486 105.067V69.02Z" fill="currentColor" stroke="currentColor"/>
<path d="M60.2622 119.241C59.9293 119.241 59.6602 118.972 59.6602 118.639V111.824C59.6602 111.491 59.9293 111.222 60.2622 111.222C60.595 111.222 60.8642 111.491 60.8642 111.824V118.639C60.8642 118.972 60.595 119.241 60.2622 119.241Z" fill="currentColor" stroke="currentColor"/>
<path d="M51.4172 116.812C50.8082 116.812 50.3152 116.319 50.3152 115.71V97.121C50.3152 96.512 50.8082 96.019 51.4172 96.019C52.0262 96.019 52.5192 96.512 52.5192 97.121V115.71C52.5482 116.319 52.0262 116.812 51.4172 116.812Z" fill="currentColor"/>
<path d="M71.2819 94.243C70.9491 94.243 70.6799 93.9739 70.6799 93.641V75.052C70.6799 74.7191 70.9491 74.45 71.2819 74.45C71.6148 74.45 71.8839 74.7191 71.8839 75.052V93.641C71.8839 93.9739 71.6148 94.243 71.2819 94.243Z" fill="currentColor" stroke="currentColor"/>
<path d="M60.2622 126.607C59.9293 126.607 59.6602 126.338 59.6602 126.005V125.077C59.6602 124.744 59.9293 124.475 60.2622 124.475C60.595 124.475 60.8642 124.744 60.8642 125.077V126.005C60.8642 126.338 60.595 126.607 60.2622 126.607Z" fill="currentColor" stroke="currentColor"/>
<path d="M104.777 138.91C90.7121 138.91 79.2571 127.455 79.2571 113.39C79.2571 99.325 90.7121 87.87 104.777 87.87C118.842 87.87 130.297 99.325 130.297 113.39C130.297 127.484 118.842 138.91 104.777 138.91ZM104.777 90.074C91.9301 90.074 81.4611 100.543 81.4611 113.39C81.4611 126.237 91.9301 136.706 104.777 136.706C117.624 136.706 128.093 126.237 128.093 113.39C128.093 100.543 117.624 90.074 104.777 90.074Z" fill="currentColor"/>
<path d="M107.3 113.767H101.007C100.398 113.767 99.905 113.274 99.905 112.665C99.905 112.056 100.398 111.563 101.007 111.563H107.3C109.765 111.563 111.795 109.562 111.795 107.068C111.795 104.574 109.794 102.573 107.3 102.573H98.31C97.701 102.573 97.208 102.08 97.208 101.471C97.208 100.862 97.701 100.369 98.31 100.369H107.3C110.983 100.369 113.999 103.385 113.999 107.068C113.999 110.78 111.012 113.767 107.3 113.767Z" fill="currentColor"/>
<path d="M109.533 124.961H98.31C97.701 124.961 97.208 124.468 97.208 123.859C97.208 123.25 97.701 122.757 98.31 122.757H109.504C111.969 122.757 113.999 120.756 113.999 118.262C113.999 115.797 111.998 113.767 109.504 113.767H101.007C100.398 113.767 99.905 113.274 99.905 112.665C99.905 112.056 100.398 111.563 101.007 111.563H109.504C113.187 111.563 116.203 114.579 116.203 118.262C116.203 121.945 113.216 124.961 109.533 124.961Z" fill="currentColor"/>
<path d="M101.007 128.615C100.398 128.615 99.905 128.122 99.905 127.513V97.875C99.905 97.266 100.398 96.773 101.007 96.773C101.616 96.773 102.109 97.266 102.109 97.875V127.513C102.109 128.122 101.616 128.615 101.007 128.615Z" fill="currentColor"/>
<path d="M106.169 102.167C105.56 102.167 105.067 101.674 105.067 101.065V97.875C105.067 97.266 105.56 96.773 106.169 96.773C106.778 96.773 107.271 97.266 107.271 97.875V101.065C107.271 101.674 106.778 102.167 106.169 102.167Z" fill="currentColor"/>
<path d="M106.169 128.615C105.56 128.615 105.067 128.122 105.067 127.513V124.323C105.067 123.714 105.56 123.221 106.169 123.221C106.778 123.221 107.271 123.714 107.271 124.323V127.513C107.271 128.122 106.778 128.615 106.169 128.615Z" fill="currentColor"/>

  </symbol>
</svg>

<svg width="174" height="174" viewBox="0 0 174 174" fill="none" xmlns="http://www.w3.org/2000/svg">
  <symbol id="item" viewBox="0 0 174 174"  fill="none">
    <path opacity=".1" d="M112.926 145.174c13.486 0 24.418-10.932 24.418-24.418 0-13.486-10.932-24.418-24.418-24.418-13.486 0-24.418 10.932-24.418 24.418 0 13.486 10.932 24.418 24.418 24.418ZM90.654 34.336 54.172 70.847c-2.001 2.001-.58 5.394 2.233 5.394h72.674c2.813 0 4.234-3.393 2.233-5.394L95.149 34.365a3.195 3.195 0 0 0-4.495-.029Z" fill="currentColor"/><path d="M59.486 69.02v-.5h-9.171a2.555 2.555 0 0 1-2.41-1.605l-.461.191.462-.191c-.414-.998-.201-2.062.561-2.851l30.157-30.157c1.456-1.456 3.838-1.46 5.327.001l.002.002 29.895 29.896c.759.758.975 1.823.586 2.795a2.56 2.56 0 0 1-2.36 1.63h-.001l-9.86.231-.485.011-.003.486-.087 14.036v.003a.601.601 0 0 1-1.204.001v-.001l.084-15.694 11.516-.278c.847-.004 1.178-.676 1.246-.816a.045.045 0 0 0 .006-.011l-.447-.224.447.224c.101-.202.334-.943-.302-1.54L83.091 34.765a2.53 2.53 0 0 0-3.608 0l-30.16 30.16c-.627.628-.392 1.329-.313 1.526l.008.019.009.019.005.01c.072.145.404.817 1.283.817H60.69v37.78c0 .295-.26.573-.602.573a.601.601 0 0 1-.602-.602V69.02ZM60.262 119.241a.601.601 0 0 1-.602-.602v-6.815a.601.601 0 1 1 1.204 0v6.815c0 .333-.269.602-.602.602Z" fill="currentColor" stroke="currentColor"/><path d="M51.417 116.812a1.102 1.102 0 0 1-1.102-1.102V97.121a1.102 1.102 0 1 1 2.204 0v18.589c.03.609-.493 1.102-1.102 1.102Z" fill="currentColor"/><path d="M71.282 94.243a.602.602 0 0 1-.602-.602V75.052a.602.602 0 1 1 1.204 0v18.589c0 .333-.27.602-.602.602ZM60.262 126.607a.601.601 0 0 1-.602-.602v-.928a.601.601 0 1 1 1.204 0v.928c0 .333-.269.602-.602.602Z" fill="currentColor" stroke="currentColor"/><path d="M104.777 138.91c-14.065 0-25.52-11.455-25.52-25.52s11.455-25.52 25.52-25.52 25.52 11.455 25.52 25.52c0 14.094-11.455 25.52-25.52 25.52Zm0-48.836c-12.847 0-23.316 10.469-23.316 23.316s10.47 23.316 23.316 23.316c12.847 0 23.316-10.469 23.316-23.316s-10.469-23.316-23.316-23.316Z" fill="currentColor"/><path d="M107.3 113.767h-6.293a1.102 1.102 0 1 1 0-2.204h6.293a4.499 4.499 0 0 0 4.495-4.495 4.48 4.48 0 0 0-4.495-4.495h-8.99a1.102 1.102 0 1 1 0-2.204h8.99c3.683 0 6.699 3.016 6.699 6.699a6.683 6.683 0 0 1-6.699 6.699Z" fill="currentColor"/><path d="M109.533 124.961H98.31a1.102 1.102 0 1 1 0-2.204h11.194a4.499 4.499 0 0 0 4.495-4.495 4.499 4.499 0 0 0-4.495-4.495h-8.497a1.102 1.102 0 1 1 0-2.204h8.497c3.683 0 6.699 3.016 6.699 6.699s-2.987 6.699-6.67 6.699Z" fill="currentColor"/><path d="M101.007 128.615a1.102 1.102 0 0 1-1.102-1.102V97.875a1.102 1.102 0 1 1 2.204 0v29.638c0 .609-.493 1.102-1.102 1.102ZM106.169 102.167a1.102 1.102 0 0 1-1.102-1.102v-3.19a1.102 1.102 0 1 1 2.204 0v3.19c0 .609-.493 1.102-1.102 1.102ZM106.169 128.615a1.102 1.102 0 0 1-1.102-1.102v-3.19a1.102 1.102 0 1 1 2.204 0v3.19c0 .609-.493 1.102-1.102 1.102Z" fill="currentColor"/>
  </symbol>
</svg>
